X:1
T:Title
%%score { ( 1 3 5 ) | ( 2 4 6 ) }
L:1/8
M:4/4
K:C
V:1 treble nm="Grand Piano"
V:3 treble 
V:5 treble 
V:2 bass 
V:4 bass 
V:6 bass 
V:1
 z4 z[Q:1/4=100] [G,CE][G,CE][G,DF] | [CEG]2 [CGc]2 [DFc][DFB][DFA][DFB] | [CEc]4- [CEc]GEF | %3
 G2 z2 z4 | [DG]4[K:bass] z4[K:treble] | [DF][CDF][B,DF][A,DF] [Fd]2 AB | %6
 [Ec][Ec][Gc][Fc] [Ec]CEA | G6 z2 |[M:7/8] c-[Ec-][Gc-] [Fc-] [Ec]3 |[M:1/4] Bc |[M:4/4] d6 z2 | %11
 G2 G6 | ^F2 [FA]2 [Fd]2 [Fe]2 |[M:3/4] d6 |[M:1/4] ed |[M:4/4] c6 z2 | [FA]8 | G2 c2 c2 B2 | %18
[M:11/16] c-[Cc-][Gc-][Fc-][Ec]3/2 |] %19
V:2
 z4 z B,,C,C, | C,2 E,2 G,G,G,G, | C,4- C,ECD | E2 z2 z2 [C,G,]2 | %4
 G,,G,,G,,G,, [G,,G,]2 [G,,G,][G,,G,] | [G,,G,]G,,G,,G,, [G,,G,]2[K:treble] [G,F][G,F] | %6
 [C,G,][C,C][C,B,][C,A,] .[C,G,]2 z2 | z [C,G,]E,[G,B,] CG, [G,,G,]2 | %8
[M:7/8] [C,G,][C,C][C,B,] [C,A,] [C,G,]3 |[M:1/4][K:treble] DE |[M:4/4] F6 z2 | %11
 [C,C][C,C][C,B,][C,A,] [C,C]4 | [D,CD]2 [D,C]2 [D,C]2 [D,C]2 | %13
[M:3/4][K:treble] [G,B,F]2 [G,B,][G,B,] [G,B,]2 |[M:1/4] GF |[M:4/4] E6[K:bass] z2 | F,F,F,F, F,4 | %17
 [G,CE]2 [G,CE]2 [G,DF]2 [G,F]2 |[M:11/16][K:bass] G, z/ z/ z/ z/ z/ z/ z/ z |] %19
V:3
 x8 | x8 | x8 | z C [EG]2 [FA][EG][DF]E | B,[K:bass]B,B,B, [B,D]2 [B,D][K:treble][CE] | x8 | x8 | %7
 z ECD z c[DB][Fd] |[M:7/8] E z z z z z2 |[M:1/4] x2 |[M:4/4] z2 B,B, B,BGA | EE z F E4 | x8 | %13
[M:3/4] z2 FF F2 |[M:1/4] x2 |[M:4/4] z2 G,G, z G[G,CE][EG] | CCCC C4 | x8 | %18
[M:11/16] E-<E z/ z/ z/ z/ z/ z |] %19
V:4
 x8 | x8 | x8 | z C,[C,C][C,C] [C,C]2 z C | x8 | x6[K:treble] x2 | x8 | z4 C,2 z2 |[M:7/8] x7 | %9
[M:1/4][K:treble] x2 |[M:4/4] z2 G,G, z [DF]FF | x8 | x8 |[M:3/4][K:treble] x6 |[M:1/4] x2 | %15
[M:4/4] z2[K:bass] C,C, z E z C | x8 | x8 |[M:11/16][K:bass] C,-<C,[C,B,][C,A,][C,G,]3/2 |] %19
V:5
 x8 | x8 | x8 | x8 | x[K:bass] x6[K:treble] x | x8 | x8 | z4 E2 z2 |[M:7/8] x7 |[M:1/4] x2 | %10
[M:4/4] x8 | x8 | x8 |[M:3/4] x6 |[M:1/4] x2 |[M:4/4] z4 G,2 z2 | x8 | x8 |[M:11/16] x11/2 |] %19
V:6
 x8 | x8 | x8 | x8 | x8 | x6[K:treble] x2 | x8 | x8 |[M:7/8] x7 |[M:1/4][K:treble] x2 | %10
[M:4/4] z4 G,2 [G,B,]2 | x8 | x8 |[M:3/4][K:treble] x6 |[M:1/4] x2 |[M:4/4] z4[K:bass] C,2 C,2 | %16
 x8 | x8 |[M:11/16][K:bass] x11/2 |] %19

